X: 1087
T: Ambrose Moloney's
R: reel
M: 4/4
K: Gmajor
|:B2 BG ABGE|DGBG A3 c|BdBG ABde|gedB eA A2|
BdBG ABGE|DGBG AGAc|BG G2 A2 Bd|gedc BG G2:|
dgbg ageg|gedB GABd|eaag ageg|dgbg ageg|
dgbg ageg|gedB GABd|eaag egfa|gedc BG G2:|

